X:1
T:Onde vaghi fioretti
T:Giovanni Matteo Asola
T:Source : Madrigali a due voci---Venetia---G.Vincenti---1587. Editor : André Vierendeels (15/11/17). Notes : Original clef : C3 (Fuga di un tempo, in unisono) Editorial accidentals above the staff Quinta stanza. 
T:Onde vaghi fioretti
T:©
T:©
T:©
C:Giovanni Matteo Asola
Z:©
%%score [ 1 2 ]
L:1/8
Q:1/4=120
M:4/4
K:F
V:1 treble-8 nm="Tenor 1" snm="T 1"
V:2 treble-8 nm="Tenor 2" snm="T 2"
V:1
 d4 A4 | c2 BA G2 A2 | BcdB c3 d | e2 f2 e4 | d4 z2 A2- | A2 d4 c2 | B4 A2 c2 | c2 B2 A4 | %8
w: On- de|va- ghi fio- ret- ti'e|ver- * * * * *|* di pog-|gi, e|_ ver- di|pog- gi, e|ver- di pog-|
 G4 z2 g2- | g2 g2 f4 | g2 d2 _e3 d | c2 B2 A4 | G4 g2 gf | e2 d2 e2 c2 | dcBA G2 c2- | c2 B2 A4 | %16
w: gi, che|_ sco- per-|ta tra noi m'ha-|vet' un tem-|po, lie- ti ar-|bo- scel- li'e no-|vel- * * * * let-|* te fron|
 G2 d2 g3 f | e2 d2 fe ed/c/ | d4 c2 G2 | c3 B A2 c2- | c2 B2 c2 d2 | e3 d f2 e2 | d4 c2 G2 | %23
w: di'e no- vel- let-|te fron- * * * * *|* di, e|no- vel- let- te|_ fron- di'e _|no- vel- let- te|fron- di, di|
 G2 B2 A4 | B4 z2 g2- | g2 d2 f2 e2 | d4 c4 | G3 G A2 A2 | B4 A4 | z2 d4 c2 | defg a3 g | %31
w: que- ste vo-|ci che|_ ri- mand' al|cie- lo,|che ri- mand' al|cie- lo,|che ri-|mand' _ _ _ _ _|
 f2 f2 e4 | d4 z2 d2- | d2 A2 c4 | B2 G2 d3 e | f4 e4 | z2 g2 fedc | B2 A2 c4 | G4 z2 d2 | %39
w: _ al cie-|lo, tes-|* ti- mo-|ni sa- re- *|* te,|e vo- * * *|i bei ra-|mi, d'o-|
 d2 f2 f2 e2 | d2 g2 e2 f2- | fe d4 c2 | d2 G2 A4 | B4 A4 | G2 g2 f2 e2 | d2 g4 f2 | g2 _e2 d2 c2 | %47
w: gni mio sald' og-|get- to, a- per-|* to lu- *|me, a- per-|to lu-|me, a- per- to|lu- * *|me, a- per- to|
 B3 A/G/ A4 | G8 |] %49
w: lu- * * *|me.|
V:2
 z8 | z8 | d4 A4 | c2 BA G2 A2 | BcdB c3 d | e2 f2 e4 | d4 z2 A2- | A2 d4 c2 | B4 A2 c2 | %9
w: ||On- de|va- ghi fio- ret- ti'e|ver- * * * * *|* di pog-|gi, e|_ ver- di|pog- gi, e|
 c2 B2 A4 | G4 z2 g2- | g2 g2 f4 | g2 d2 _e3 d | c2 B2 A4 | G4 g2 gf | e2 d2 e2 c2 | dcBA G2 c2- | %17
w: ver- di pog-|gi, che|_ sco- per-|ta tra noi m'ha-|vet' un tem-|po, lie- ti ar-|bo- scel- li'e no-|vel- * * * * let-|
 c2 B2 A4 | G2 d2 g3 f | e2 d2 fe ed/c/ | d4 c2 G2 | c3 B A2 c2- |"^-natural" c2 B2 c2 d2 | %23
w: * te fron-|di'e no- vel- let-|te fron- * * * * *|* di, e|no- vel- let- te|_ fron- di'e _|
 e3 d f2 e2 | d4 c2 G2 | G2 B2 A4 | B4 z2 g2- | g2 d2 f2 e2 | d4 c4 | G3 G A2 A2 | B4 A4 | %31
w: no- vel- let- te|fron- di, di|que- sti vo-|ci che|_ ri- mand' al|cie- lo,|che ri- mand' al|cie- lo,|
 z2 d4 c2 | defg a3 g | f2 f2 e4 | d4 z2 d2- | d2 A2 c4 | B2 G2 d3 e | f4 e4 | z2 g2 fedc | %39
w: che ri-|mand' _ _ _ _ _|_ al cie-|lo, te-|* sti mo-|ni sa- re- *|* te,|e vo- * * *|
 B2 A2 c4 | G4 z2 d2 |"^#" d2 f2 f2 e2 | d2 g2 e2 f2- | fe d4 c2 | d2 G2 A4 | B4 A4 | G2 g2 f2 e2 | %47
w: i bei ra-|mi, d'o-|gni mio sald' og-|get- to, a- per-|* to lu- *|me, a per-|to lu-|me, a- per- to|
"^#" d2 g4 f2 | g8 |] %49
w: lu- * *|me.|

